X: 1
T: Barr Na Cuille
M: 4/4
L: 1/8
R: reel
K: Dmaj
A|:FA (3ABA Bddg|fAdf efdA|FA (3ABA GBde|1(3fed ef dBAG:|2(3fed ef d3e|]
|:(3fed af g2 bg|faag fedd|1(3fed af gbag|fdef d3e:|2fdfa bbag|fedc d3|]
